public/svg/calendar.svg

<svg enable-background="new 0 0 34 30" viewBox="0 0 34 30" xmlns="http://www.w3.org/2000/svg" xmlns:xlink="http://www.w3.org/1999/xlink"><linearGradient id="a"><stop offset="0" stop-color="#4dbbed"/><stop offset="1" stop-color="#5c6ddd"/></linearGradient><linearGradient id="b" gradientTransform="matrix(34 0 0 -30 9240 1382.0001)" gradientUnits="userSpaceOnUse" x1="-271.2647" x2="-271.2647" xlink:href="#a" y1="46.0639" y2="45.0761"/><linearGradient id="c" gradientTransform="matrix(3 0 0 -2 572 -455.9999)" gradientUnits="userSpaceOnUse" x1="-186.1667" x2="-186.1667" xlink:href="#a" y1="-232.98" y2="-233.9679"/><linearGradient id="d" gradientTransform="matrix(3 0 0 -2 579 -455.9999)" gradientUnits="userSpaceOnUse" x1="-186.2" x2="-186.2" xlink:href="#a" y1="-232.98" y2="-233.9679"/><linearGradient id="e" gradientTransform="matrix(3 0 0 -2 585 -455.9999)" gradientUnits="userSpaceOnUse" x1="-186.2" x2="-186.2" xlink:href="#a" y1="-232.98" y2="-233.9679"/><linearGradient id="f" gradientTransform="matrix(3 0 0 -2 572 -449.9999)" gradientUnits="userSpaceOnUse" x1="-186.1667" x2="-186.1667" xlink:href="#a" y1="-232.9435" y2="-233.9313"/><linearGradient id="g" gradientTransform="matrix(3 0 0 -2 566 -449.9999)" gradientUnits="userSpaceOnUse" x1="-186.1333" x2="-186.1333" xlink:href="#a" y1="-232.9435" y2="-233.9313"/><linearGradient id="h" gradientTransform="matrix(3 0 0 -2 579 -449.9999)" gradientUnits="userSpaceOnUse" x1="-186.2" x2="-186.2" xlink:href="#a" y1="-232.9435" y2="-233.9313"/><linearGradient id="i" gradientTransform="matrix(3 0 0 -2 585 -449.9999)" gradientUnits="userSpaceOnUse" x1="-186.2" x2="-186.2" xlink:href="#a" y1="-232.9435" y2="-233.9313"/><linearGradient id="j" gradientTransform="matrix(3 0 0 -2 572 -443.9999)" gradientUnits="userSpaceOnUse" x1="-186.1667" x2="-186.1667" xlink:href="#a" y1="-232.907" y2="-233.8948"/><linearGradient id="k" gradientTransform="matrix(3 0 0 -2 566 -443.9999)" gradientUnits="userSpaceOnUse" x1="-186.1333" x2="-186.1333" xlink:href="#a" y1="-232.907" y2="-233.8948"/><linearGradient id="l" gradientTransform="matrix(3 0 0 -2 579 -443.9999)" gradientUnits="userSpaceOnUse" x1="-186.2" x2="-186.2" xlink:href="#a" y1="-232.907" y2="-233.8948"/><g><path d="m30.3 2.6h-2.1v-1.7c0-.5-.4-.9-.9-.9s-.9.4-.9.9v1.7h-8.6v-1.7c0-.5-.4-.9-.9-.9s-.9.4-.9.9v1.7h-8.5v-1.7c0-.5-.4-.9-.9-.9s-.9.5-.9.9v1.7h-2c-1.9 0-3.5 1.6-3.5 3.5v20.1c0 1.9 1.6 3.5 3.5 3.5h26.6c1.9 0 3.5-1.6 3.5-3.5v-20.1c0-1.9-1.6-3.5-3.5-3.5zm1.8 23.7c0 1-.8 1.7-1.7 1.7h-26.7c-1 0-1.7-.8-1.7-1.7v-20.2c0-1 .8-1.8 1.7-1.8h2v1.3c0 .5.4.9.9.9s.9-.4.9-.9v-1.3h8.7v1.3c0 .5.4.9.9.9s.9-.4.9-.9v-1.3h8.6v1.3c0 .5.4.9.9.9s.9-.4.9-.9v-1.3h2.1c1 0 1.7.8 1.7 1.8v20.2z" fill="url(#b)" stroke="#fff" stroke-miterlimit="10" stroke-width=".25"/><path d="m14.2 10h-1.4c-.4 0-.8.4-.8 1 0 .5.4 1 .8 1h1.4c.4 0 .8-.4.8-1s-.3-1-.8-1z" fill="url(#c)"/><path d="m21.1 10h-1.4c-.4 0-.8.4-.8 1 0 .5.4 1 .8 1h1.4c.4 0 .8-.4.8-1s-.3-1-.8-1z" fill="url(#d)"/><path d="m27.1 10h-1.4c-.4 0-.8.4-.8 1 0 .5.4 1 .8 1h1.4c.4 0 .8-.4.8-1s-.4-1-.8-1z" fill="url(#e)"/><path d="m14.2 15.9h-1.4c-.4 0-.8.4-.8 1 0 .5.4 1 .8 1h1.4c.4 0 .8-.4.8-1s-.3-1-.8-1z" fill="url(#f)"/><path d="m8.3 15.9h-1.4c-.4 0-.8.4-.8 1 0 .5.4 1 .8 1h1.4c.4 0 .8-.4.8-1s-.4-1-.8-1z" fill="url(#g)"/><path d="m21.1 15.9h-1.4c-.4 0-.8.4-.8 1 0 .5.4 1 .8 1h1.4c.4 0 .8-.4.8-1s-.3-1-.8-1z" fill="url(#h)"/><path d="m27.1 15.9h-1.4c-.4 0-.8.4-.8 1 0 .5.4 1 .8 1h1.4c.4 0 .8-.4.8-1s-.4-1-.8-1z" fill="url(#i)"/><path d="m14.2 21.8h-1.4c-.4 0-.8.4-.8 1 0 .5.4 1 .8 1h1.4c.4 0 .8-.4.8-1 0-.5-.3-1-.8-1z" fill="url(#j)"/><path d="m8.3 21.8h-1.4c-.4 0-.8.4-.8 1 0 .5.4 1 .8 1h1.4c.4 0 .8-.4.8-1 0-.5-.4-1-.8-1z" fill="url(#k)"/><path d="m21.1 21.8h-1.4c-.4 0-.8.4-.8 1 0 .5.4 1 .8 1h1.4c.4 0 .8-.4.8-1 0-.5-.3-1-.8-1z" fill="url(#l)"/></g></svg>

<?xml version="1.0" encoding="utf-8"?>
<!-- Generator: Adobe Illustrator 24.0.3, SVG Export Plug-In . SVG Version: 6.00 Build 0)  -->
<svg version="1.1" id="Calque_1" xmlns="http://www.w3.org/2000/svg" xmlns:xlink="http://www.w3.org/1999/xlink" x="0px" y="0px"
	 viewBox="0 0 34 30" style="enable-background:new 0 0 34 30;" xml:space="preserve">
<style type="text/css">
	.st0{fill:url(#Shape_1_);stroke:#FFFFFF;stroke-width:0.25;stroke-miterlimit:10;}
	.st1{fill:url(#Path_10_);}
	.st2{fill:url(#Path_11_);}
	.st3{fill:url(#Path_12_);}
	.st4{fill:url(#Path_13_);}
	.st5{fill:url(#Path_14_);}
	.st6{fill:url(#Path_15_);}
	.st7{fill:url(#Path_16_);}
	.st8{fill:url(#Path_17_);}
	.st9{fill:url(#Path_18_);}
	.st10{fill:url(#Path_19_);}
</style>
<title>calendar</title>
<g id="Page-1">
	<g id="workers-personnal-desktop" transform="translate(-1002.000000, -936.000000)">
		<g id="calendar" transform="translate(1002.000000, 936.000000)">
			
				<linearGradient id="Shape_1_" gradientUnits="userSpaceOnUse" x1="-271.2647" y1="46.0639" x2="-271.2647" y2="45.0761" gradientTransform="matrix(34 0 0 -30 9240 1382.0001)">
				<stop  offset="0" style="stop-color:#4DBBED"/>
				<stop  offset="1" style="stop-color:#5C6DDD"/>
			</linearGradient>
			<path id="Shape" class="st0" d="M30.3,2.6h-2.1V0.9c0-0.5-0.4-0.9-0.9-0.9s-0.9,0.4-0.9,0.9v1.7h-8.6V0.9c0-0.5-0.4-0.9-0.9-0.9
				S16,0.4,16,0.9v1.7H7.5V0.9C7.5,0.4,7.1,0,6.6,0S5.7,0.5,5.7,0.9v1.7h-2c-1.9,0-3.5,1.6-3.5,3.5v20.1c0,1.9,1.6,3.5,3.5,3.5h26.6
				c1.9,0,3.5-1.6,3.5-3.5V6.1C33.8,4.2,32.2,2.6,30.3,2.6z M32.1,26.3c0,1-0.8,1.7-1.7,1.7l0,0H3.7c-1,0-1.7-0.8-1.7-1.7l0,0V6.1
				c0-1,0.8-1.8,1.7-1.8h2v1.3c0,0.5,0.4,0.9,0.9,0.9s0.9-0.4,0.9-0.9V4.3h8.7v1.3c0,0.5,0.4,0.9,0.9,0.9S18,6.1,18,5.6V4.3h8.6v1.3
				c0,0.5,0.4,0.9,0.9,0.9s0.9-0.4,0.9-0.9V4.3h2.1c1,0,1.7,0.8,1.7,1.8v20.2C32.2,26.3,32.1,26.3,32.1,26.3z"/>
			
				<linearGradient id="Path_10_" gradientUnits="userSpaceOnUse" x1="-186.1667" y1="-232.98" x2="-186.1667" y2="-233.9679" gradientTransform="matrix(3 0 0 -2 572 -455.9999)">
				<stop  offset="0" style="stop-color:#4DBBED"/>
				<stop  offset="1" style="stop-color:#5C6DDD"/>
			</linearGradient>
			<path id="Path" class="st1" d="M14.2,10h-1.4c-0.4,0-0.8,0.4-0.8,1c0,0.5,0.4,1,0.8,1h1.4c0.4,0,0.8-0.4,0.8-1S14.7,10,14.2,10z"
				/>
			
				<linearGradient id="Path_11_" gradientUnits="userSpaceOnUse" x1="-186.2" y1="-232.98" x2="-186.2" y2="-233.9679" gradientTransform="matrix(3 0 0 -2 579 -455.9999)">
				<stop  offset="0" style="stop-color:#4DBBED"/>
				<stop  offset="1" style="stop-color:#5C6DDD"/>
			</linearGradient>
			<path id="Path_1_" class="st2" d="M21.1,10h-1.4c-0.4,0-0.8,0.4-0.8,1c0,0.5,0.4,1,0.8,1h1.4c0.4,0,0.8-0.4,0.8-1
				S21.6,10,21.1,10z"/>
			
				<linearGradient id="Path_12_" gradientUnits="userSpaceOnUse" x1="-186.2" y1="-232.98" x2="-186.2" y2="-233.9679" gradientTransform="matrix(3 0 0 -2 585 -455.9999)">
				<stop  offset="0" style="stop-color:#4DBBED"/>
				<stop  offset="1" style="stop-color:#5C6DDD"/>
			</linearGradient>
			<path id="Path_2_" class="st3" d="M27.1,10h-1.4c-0.4,0-0.8,0.4-0.8,1c0,0.5,0.4,1,0.8,1h1.4c0.4,0,0.8-0.4,0.8-1
				S27.5,10,27.1,10z"/>
			
				<linearGradient id="Path_13_" gradientUnits="userSpaceOnUse" x1="-186.1667" y1="-232.9435" x2="-186.1667" y2="-233.9313" gradientTransform="matrix(3 0 0 -2 572 -449.9999)">
				<stop  offset="0" style="stop-color:#4DBBED"/>
				<stop  offset="1" style="stop-color:#5C6DDD"/>
			</linearGradient>
			<path id="Path_3_" class="st4" d="M14.2,15.9h-1.4c-0.4,0-0.8,0.4-0.8,1c0,0.5,0.4,1,0.8,1h1.4c0.4,0,0.8-0.4,0.8-1
				S14.7,15.9,14.2,15.9z"/>
			
				<linearGradient id="Path_14_" gradientUnits="userSpaceOnUse" x1="-186.1333" y1="-232.9435" x2="-186.1333" y2="-233.9313" gradientTransform="matrix(3 0 0 -2 566 -449.9999)">
				<stop  offset="0" style="stop-color:#4DBBED"/>
				<stop  offset="1" style="stop-color:#5C6DDD"/>
			</linearGradient>
			<path id="Path_4_" class="st5" d="M8.3,15.9H6.9c-0.4,0-0.8,0.4-0.8,1c0,0.5,0.4,1,0.8,1h1.4c0.4,0,0.8-0.4,0.8-1
				S8.7,15.9,8.3,15.9z"/>
			
				<linearGradient id="Path_15_" gradientUnits="userSpaceOnUse" x1="-186.2" y1="-232.9435" x2="-186.2" y2="-233.9313" gradientTransform="matrix(3 0 0 -2 579 -449.9999)">
				<stop  offset="0" style="stop-color:#4DBBED"/>
				<stop  offset="1" style="stop-color:#5C6DDD"/>
			</linearGradient>
			<path id="Path_5_" class="st6" d="M21.1,15.9h-1.4c-0.4,0-0.8,0.4-0.8,1c0,0.5,0.4,1,0.8,1h1.4c0.4,0,0.8-0.4,0.8-1
				S21.6,15.9,21.1,15.9z"/>
			
				<linearGradient id="Path_16_" gradientUnits="userSpaceOnUse" x1="-186.2" y1="-232.9435" x2="-186.2" y2="-233.9313" gradientTransform="matrix(3 0 0 -2 585 -449.9999)">
				<stop  offset="0" style="stop-color:#4DBBED"/>
				<stop  offset="1" style="stop-color:#5C6DDD"/>
			</linearGradient>
			<path id="Path_6_" class="st7" d="M27.1,15.9h-1.4c-0.4,0-0.8,0.4-0.8,1c0,0.5,0.4,1,0.8,1h1.4c0.4,0,0.8-0.4,0.8-1
				S27.5,15.9,27.1,15.9z"/>
			
				<linearGradient id="Path_17_" gradientUnits="userSpaceOnUse" x1="-186.1667" y1="-232.907" x2="-186.1667" y2="-233.8948" gradientTransform="matrix(3 0 0 -2 572 -443.9999)">
				<stop  offset="0" style="stop-color:#4DBBED"/>
				<stop  offset="1" style="stop-color:#5C6DDD"/>
			</linearGradient>
			<path id="Path_7_" class="st8" d="M14.2,21.8h-1.4c-0.4,0-0.8,0.4-0.8,1c0,0.5,0.4,1,0.8,1h1.4c0.4,0,0.8-0.4,0.8-1
				C15,22.3,14.7,21.8,14.2,21.8z"/>
			
				<linearGradient id="Path_18_" gradientUnits="userSpaceOnUse" x1="-186.1333" y1="-232.907" x2="-186.1333" y2="-233.8948" gradientTransform="matrix(3 0 0 -2 566 -443.9999)">
				<stop  offset="0" style="stop-color:#4DBBED"/>
				<stop  offset="1" style="stop-color:#5C6DDD"/>
			</linearGradient>
			<path id="Path_8_" class="st9" d="M8.3,21.8H6.9c-0.4,0-0.8,0.4-0.8,1c0,0.5,0.4,1,0.8,1h1.4c0.4,0,0.8-0.4,0.8-1
				C9.1,22.3,8.7,21.8,8.3,21.8z"/>
			
				<linearGradient id="Path_19_" gradientUnits="userSpaceOnUse" x1="-186.2" y1="-232.907" x2="-186.2" y2="-233.8948" gradientTransform="matrix(3 0 0 -2 579 -443.9999)">
				<stop  offset="0" style="stop-color:#4DBBED"/>
				<stop  offset="1" style="stop-color:#5C6DDD"/>
			</linearGradient>
			<path id="Path_9_" class="st10" d="M21.1,21.8h-1.4c-0.4,0-0.8,0.4-0.8,1c0,0.5,0.4,1,0.8,1h1.4c0.4,0,0.8-0.4,0.8-1
				C21.9,22.3,21.6,21.8,21.1,21.8z"/>
		</g>
	</g>
</g>
</svg>
